X: 1
T: Dionne
M: 4/4
L: 1/8
R: reel
K: Dmaj
|&quot;A&quot;Adfd gdfd|Adfd ed (3Bcd|Adfd gdfd|efec d2(3dcB|
Adfd gdfd|Adfd ed (3Bcd|Adfd gdfd|efec d2fg|]
|&quot;B&quot;afbf afde|fded Bcde|afbf afde|fded d2fg|
afbf afde|fded Bcde|afbf afde|fded d2:|
&quot;C&quot;A|~B2AG BGAG|BGAG EFGA|~B2AG BGAG|EGFA G3:|
|:&quot;D&quot;F2Ad fdAF|G2Bd ~g3B|ABce gece|defg afdA|
F2Ad fdAF|G2Bd ~g3B|ABce gece|[1 dfec dBAG:|[2 dfec defg|]
|:&quot;E&quot;a2fd afda|g2e=c gefg|a2fd afda|[1 gece defg:|[2 gece d3B:|
